images/jguzmanLogo.svg

<svg fill="none" height="41" viewBox="0 0 42 41" width="42" xmlns="http://www.w3.org/2000/svg" xmlns:xlink="http://www.w3.org/1999/xlink"><mask id="a" fill="#000" height="32" maskUnits="userSpaceOnUse" width="42" x="0" y="8.87256"><path d="m0 8.87256h42v32h-42z" fill="#fff"/><path d="m17.3574 10.1107-.3316 2.0674-.7812 4.3261-2.0151 13.247-.3086 1.2921c-.36 1.4843-1.0414 2.6307-2.0442 3.4391-1.0028.8217-2.21134 1.206-3.62557 1.153-1.82564-.053-3.34272-.868-4.55124-2.4451l-2.69989 3.4192c.84854 1.0735 1.92849 1.915 3.23987 2.5246 1.31137.6229 2.68703.9476 4.12697.9741 2.94416.053 5.41266-.7554 7.40536-2.4252 1.9928-1.6699 3.1756-3.9361 3.5485-6.7987l3.4134-20.7736z" fill="#000"/><path d="m20.6737 21.047c.3857-3.3328 1.4335-6.0348 3.1434-8.1061 1.7228-2.0847 3.8892-3.10705 6.4991-3.06722 2.2241.05311 3.8826.64492 4.9755 2.25152l.3989-2.0714h5.3094l-3.4134 20.813c-.3729 2.868-1.5557 5.1386-3.5485 6.8116-1.9927 1.673-4.4612 2.4829-7.4054 2.4298-1.4399-.0266-2.8156-.3519-4.1269-.9759-1.3114-.6108-2.3914-1.4539-3.2399-2.5294l2.6999-3.4257c1.2085 1.58 2.7256 2.3966 4.5512 2.4497 1.4143.0531 2.6228-.3319 3.6256-1.1551 1.0028-.81 1.6842-1.9585 2.0442-3.4456l.3085-1.2946c-1.517 1.5668-3.2205 2.5617-5.1105 2.5086-2.0313-.0266-3.6448-.8033-4.8405-2.3303-1.1956-1.5402-1.8513-3.5385-1.967-5.9949-.0386-.81-.0065-1.766.0964-2.868zm5.3419 2.3501c0 1.2482.2507 2.2506.7521 3.0075.5143.7435 1.2535 1.1352 2.2178 1.1751 1.4785.0531 3.0246-.8339 4.1688-2.1883l1.3853-9.1235c-.5529-1.2482-1.575-1.8988-3.0664-1.9519-1.3885-.0398-2.5648.7759-3.5291 1.9709-.9642 1.195-1.5685 2.7817-1.8128 4.7601-.09.9693-.1285 1.7526-.1157 2.3501z" fill="#000"/></mask><g fill="#000"><path d="m17.3574 10.1107-.3316 2.0674-.7812 4.3261-2.0151 13.247-.3086 1.2921c-.36 1.4843-1.0414 2.6307-2.0442 3.4391-1.0028.8217-2.21134 1.206-3.62557 1.153-1.82564-.053-3.34272-.868-4.55124-2.4451l-2.69989 3.4192c.84854 1.0735 1.92849 1.915 3.23987 2.5246 1.31137.6229 2.68703.9476 4.12697.9741 2.94416.053 5.41266-.7554 7.40536-2.4252 1.9928-1.6699 3.1756-3.9361 3.5485-6.7987l3.4134-20.7736z"/><path d="m20.6737 21.047c.3857-3.3328 1.4335-6.0348 3.1434-8.1061 1.7228-2.0847 3.8892-3.10705 6.4991-3.06722 2.2241.05311 3.8826.64492 4.9755 2.25152l.3989-2.0714h5.3094l-3.4134 20.813c-.3729 2.868-1.5557 5.1386-3.5485 6.8116-1.9927 1.673-4.4612 2.4829-7.4054 2.4298-1.4399-.0266-2.8156-.3519-4.1269-.9759-1.3114-.6108-2.3914-1.4539-3.2399-2.5294l2.6999-3.4257c1.2085 1.58 2.7256 2.3966 4.5512 2.4497 1.4143.0531 2.6228-.3319 3.6256-1.1551 1.0028-.81 1.6842-1.9585 2.0442-3.4456l.3085-1.2946c-1.517 1.5668-3.2205 2.5617-5.1105 2.5086-2.0313-.0266-3.6448-.8033-4.8405-2.3303-1.1956-1.5402-1.8513-3.5385-1.967-5.9949-.0386-.81-.0065-1.766.0964-2.868zm5.3419 2.3501c0 1.2482.2507 2.2506.7521 3.0075.5143.7435 1.2535 1.1352 2.2178 1.1751 1.4785.0531 3.0246-.8339 4.1688-2.1883l1.3853-9.1235c-.5529-1.2482-1.575-1.8988-3.0664-1.9519-1.3885-.0398-2.5648.7759-3.5291 1.9709-.9642 1.195-1.5685 2.7817-1.8128 4.7601-.09.9693-.1285 1.7526-.1157 2.3501z"/><path d="m34.5396 16.2679-.2461-.0447-.0011.0071zm-18.0479.2739.0291-.1913-.4943-.0752-.0291.1913zm16.2508 13.2273 2.0442-13.4637-.4943-.0751-2.0442 13.4637zm2.3032-17.6886-.7521 4.1427.4919.0893.7521-4.1427zm-18.0199.0976.4921.0889.0016-.0097zm.3316-2.0674v-.50005h-.4262l-.0675.42085zm5.3767 0 .4934.081.0955-.58104h-.5889zm-3.4134 20.7736-.4934-.0811-.0014.0083-.001.0082zm-3.5485 6.7987.3212.3832zm-7.40536 2.4252-.0092.4999h.0002zm-4.12697-.9741.21453-.4516-.00376-.0018zm-3.23987-2.5246-.392412-.3099-.244802.3101.244961.3098zm2.69989-3.4192.39687-.3041-.39096-.5102-.39832.5044zm4.55124 2.4451.01873-.4997-.00422-.0001zm3.62557-1.153-.3138-.3892-.0031.0025zm2.0442-3.4391.4859.1179.0004-.0017zm.3086-1.2921.4863.1161.0048-.0203.0032-.0206zm2.0151-13.247-.4923-.0889-.0021.0137zm4.4291 4.5428-.4968-.0575-.001.011zm3.1434-8.1061-.3854-.3186-.0002.0002zm6.4991-3.06722.0119-.49988-.0043-.00006zm4.9755 2.25152-.4135.2812.6769.995.2275-1.1817zm.3989-2.0714v-.49996h-.4129l-.0781.40544zm5.3094 0 .4934.081.0953-.58096h-.5887zm-3.4134 20.813-.4934-.0809-.0014.0082-.0011.0083zm-10.9539 9.2414-.0092.4999h.0002zm-4.1269-.9759.2148-.4515-.0037-.0018zm-3.2399-2.5294-.3927-.3095-.2441.3096.2443.3096zm2.6999-3.4257.3971-.3038-.3912-.5115-.3986.5058zm4.5512 2.4497.0188-.4996-.0042-.0002zm3.6256-1.1551-.3142-.389-.0031.0025zm2.0442-3.4456.486.1176.0004-.0017zm.3085-1.2946.4864.1159.4228-1.7736-1.2684 1.3099zm-5.1105 2.5086.0141-.4999-.0075-.0001zm-4.8405-2.3303-.3949.3066.0013.0017zm-1.967-5.9949.4994-.0235v-.0003zm5.4383-.5179h.5001l-.0002-.0107zm.7521 3.0075-.4169.2762.0057.0082zm2.2178 1.1751-.0206.4995.0026.0001zm4.1688-2.1883.382.3227.0911-.1079.0213-.1397zm1.3853-9.1235.4943.075.0219-.1442-.0591-.1333zm-3.0664-1.9519.0178-.4997-.0034-.0001zm-5.3419 6.731-.4962-.0613-.0009.0075-.0007.0075zm-8.6118-8.7897.3316-2.0675-.9874-.1583-.3316 2.0674zm-.1621-1.6466h5.3767v-1.00004l-5.3767-.00001zm4.8833-.5811-3.4134 20.7736.9868.1622 3.4134-20.7737zm-3.4158 20.7901c-.3586 2.7531-1.488 4.8999-3.3738 6.48l.6423.7665c2.0998-1.7595 3.336-4.1452 3.7231-7.1173zm-3.3738 6.48c-1.8881 1.5822-4.2346 2.3597-7.07526 2.3086l-.018.9998c3.04766.0549 5.63806-.7843 7.73556-2.5419zm-7.07506 2.3086c-1.36826-.0252-2.67397-.3332-3.92165-.9258l-.42905.9033c1.37507.6531 2.82067.9945 4.3323 1.0223zm-3.9254-.9276c-1.24465-.5786-2.26106-1.3726-3.05839-2.3813l-.784503.6201c.899753 1.1383 2.043243 2.0274 3.421343 2.668zm-3.05823-1.7614 2.69989-3.4192-.78482-.6197-2.699892 3.4192zm1.91061-3.4249c1.29086 1.6845 2.9431 2.583 4.9336 2.6408l.02902-.9996c-1.66078-.0482-3.0427-.7798-4.16888-2.2494zm4.92938 2.6407c1.52406.0571 2.8551-.3596 3.9612-1.2659l-.6338-.7735c-.8995.737-1.98554 1.089-3.28994 1.0401zm3.9581-1.2634c1.1036-.8897 1.8354-2.1398 2.2163-3.7105l-.9718-.2357c-.3391 1.3979-.9701 2.4405-1.8721 3.1677zm2.2167-3.7122.3086-1.2922-.9727-.2322-.3085 1.2921zm.3166-1.3331 2.0151-13.247-.9887-.1504-2.0151 13.247zm1.8099-17.7372-.7812 4.3262.9841.1777.7812-4.3262zm4.6367 9.0153c.3773-3.2608 1.3975-5.865 3.0323-7.8453l-.7712-.6367c-1.785 2.1624-2.8605 4.9623-3.2545 8.367zm3.0322-7.8451c1.6301-1.9725 3.654-2.9232 6.1059-2.8858l.0153-.99986c-2.7679-.04225-5.0767 1.05186-6.8921 3.24856zm6.1016-2.8859c2.1395.0511 3.6078.6124 4.574 2.0329l.8269-.5624c-1.2194-1.7928-3.0681-2.41504-5.377-2.47018zm5.4784 1.8462.3989-2.0713-.9819-.18912-.3989 2.07132zm-.092-1.6659h5.3094v-.99996h-5.3094zm4.816-.58089-3.4134 20.81299.9868.1619 3.4134-20.813zm-3.4159 20.82949c-.3586 2.7587-1.4882 4.9098-3.374 6.493l.6429.7659c2.0998-1.7628 3.3357-4.1527 3.7228-7.13zm-3.374 6.493c-1.8882 1.5852-4.2345 2.3641-7.0749 2.3129l-.0181.9998c3.0479.055 5.6385-.7859 7.7359-2.5468zm-7.0747 2.3129c-1.3682-.0252-2.6738-.3338-3.9214-.9275l-.4297.903c1.3751.6544 2.8208.9964 4.3326 1.0243zm-3.9251-.9293c-1.2446-.5796-2.2611-1.3752-3.0585-2.3858l-.785.6194c.8996 1.1403 2.0431 2.031 3.4213 2.6729zm-3.0583-1.7667 2.6999-3.4256-.7854-.619-2.6999 3.4257zm1.91-3.4314c1.2907 1.6876 2.943 2.5879 4.9339 2.6458l.0291-.9996c-1.6604-.0483-3.0423-.7811-4.1687-2.2537zm4.9297 2.6457c1.5243.0572 2.8554-.3604 3.9615-1.2684l-.6345-.7729c-.8995.7384-1.9854 1.091-3.2895 1.042zm3.9585-1.2659c1.1035-.8913 1.8351-2.1436 2.216-3.7169l-.972-.2353c-.3391 1.4009-.9703 2.4457-1.8724 3.1743zm2.2164-3.7186.3085-1.2946-.9727-.2318-.3086 1.2945zm-.5371-1.7583c-1.4686 1.5167-3.0452 2.4041-4.7372 2.3566l-.0281.9996c2.0879.0587 3.9182-1.0438 5.4838-2.6606zm-4.7447 2.3564c-1.8883-.0247-3.3561-.7372-4.4534-2.1385l-.7873.6165c1.294 1.6526 3.0532 2.4935 5.2276 2.5219zm-4.4521-2.1369c-1.1178-1.4398-1.7504-3.3313-1.8626-5.7118l-.9989.047c.1193 2.5323.798 4.6374 2.0716 6.278zm-1.8626-5.7121c-.0371-.7798-.0066-1.7113.0948-2.7978l-.9956-.0929c-.1043 1.1176-.1381 2.0982-.0981 2.9383zm4.4389-.4941c0 1.3107.2628 2.4195.8353 3.2836l.8337-.5523c-.4304-.6495-.669-1.5457-.669-2.7313zm.8409 3.2919c.6103.8824 1.4997 1.3444 2.6084 1.3902l.0412-.9991c-.8198-.0339-1.4089-.3552-1.8271-.9599zm2.611 1.3903c1.6844.0605 3.3652-.9406 4.5688-2.3652l-.7639-.6454c-1.0849 1.2841-2.4963 2.057-3.769 2.0113zm4.6812-2.6128 1.3852-9.1236-.9887-.1501-1.3852 9.1236zm1.348-9.4011c-.3111-.7024-.7654-1.2586-1.3699-1.6434-.6017-.383-1.3216-.5767-2.1358-.6057l-.0355.9994c.6771.0241 1.214.1824 1.6344.4499.4176.2659.7508.659.9925 1.2048zm-3.5091-2.2492c-1.6132-.0463-2.9234.9059-3.9326 2.1567l.7782.628c.9193-1.1393 1.9619-1.8185 3.1257-1.7851zm-3.9326 2.1567c-1.0379 1.2863-1.6675 2.9689-1.9199 5.0128l.9925.1225c.2361-1.9129.815-3.4036 1.7056-4.5073zm-1.9215 5.0278c-.0908.9781-.1312 1.7827-.1178 2.4072l.9998-.0215c-.0123-.5705.0245-1.3327.1137-2.2932z" mask="url(#a)"/></g><ellipse cx="20.422" cy="3.68209" fill="#fd000a" rx="3.46821" ry="3.57143"/></svg>

<svg width="42" height="41" viewBox="0 0 42 41" fill="none" xmlns="http://www.w3.org/2000/svg">
<mask id="path-1-outside-1" maskUnits="userSpaceOnUse" x="0" y="8.87256" width="42" height="32" fill="black">
<rect fill="white" y="8.87256" width="42" height="32"/>
<path d="M17.3574 10.1107L17.0258 12.1781L16.2446 16.5042L14.2295 29.7512L13.9209 31.0433C13.5609 32.5276 12.8795 33.674 11.8767 34.4824C10.8739 35.3041 9.66536 35.6884 8.25113 35.6354C6.42549 35.5824 4.90841 34.7674 3.69989 33.1903L1 36.6095C1.84854 37.683 2.92849 38.5245 4.23987 39.1341C5.55124 39.757 6.9269 40.0817 8.36684 40.1082C11.311 40.1612 13.7795 39.3528 15.7722 37.683C17.765 36.0131 18.9478 33.7469 19.3207 30.8843L22.7341 10.1107L17.3574 10.1107Z"/>
<path d="M20.6737 21.047C21.0594 17.7142 22.1072 15.0122 23.8171 12.9409C25.5399 10.8562 27.7063 9.83385 30.3162 9.87368C32.5403 9.92679 34.1988 10.5186 35.2917 12.1252L35.6906 10.0538H41L37.5866 30.8668C37.2137 33.7348 36.0309 36.0054 34.0381 37.6784C32.0454 39.3514 29.5769 40.1613 26.6327 40.1082C25.1928 40.0816 23.8171 39.7563 22.5058 39.1323C21.1944 38.5215 20.1144 37.6784 19.2659 36.6029L21.9658 33.1772C23.1743 34.7572 24.6914 35.5738 26.517 35.6269C27.9313 35.68 29.1398 35.295 30.1426 34.4718C31.1454 33.6618 31.8268 32.5133 32.1868 31.0262L32.4953 29.7316C30.9783 31.2984 29.2748 32.2933 27.3848 32.2402C25.3535 32.2136 23.74 31.4369 22.5443 29.9099C21.3487 28.3697 20.693 26.3714 20.5773 23.915C20.5387 23.105 20.5708 22.149 20.6737 21.047ZM26.0156 23.3971C26.0156 24.6453 26.2663 25.6477 26.7677 26.4046C27.282 27.1481 28.0212 27.5398 28.9855 27.5797C30.464 27.6328 32.0101 26.7458 33.1543 25.3914L34.5396 16.2679C33.9867 15.0197 32.9646 14.3691 31.4732 14.316C30.0847 14.2762 28.9084 15.0919 27.9441 16.2869C26.9799 17.4819 26.3756 19.0686 26.1313 21.047C26.0413 22.0163 26.0028 22.7996 26.0156 23.3971Z"/>
</mask>
<path d="M17.3574 10.1107L17.0258 12.1781L16.2446 16.5042L14.2295 29.7512L13.9209 31.0433C13.5609 32.5276 12.8795 33.674 11.8767 34.4824C10.8739 35.3041 9.66536 35.6884 8.25113 35.6354C6.42549 35.5824 4.90841 34.7674 3.69989 33.1903L1 36.6095C1.84854 37.683 2.92849 38.5245 4.23987 39.1341C5.55124 39.757 6.9269 40.0817 8.36684 40.1082C11.311 40.1612 13.7795 39.3528 15.7722 37.683C17.765 36.0131 18.9478 33.7469 19.3207 30.8843L22.7341 10.1107L17.3574 10.1107Z" fill="black"/>
<path d="M20.6737 21.047C21.0594 17.7142 22.1072 15.0122 23.8171 12.9409C25.5399 10.8562 27.7063 9.83385 30.3162 9.87368C32.5403 9.92679 34.1988 10.5186 35.2917 12.1252L35.6906 10.0538H41L37.5866 30.8668C37.2137 33.7348 36.0309 36.0054 34.0381 37.6784C32.0454 39.3514 29.5769 40.1613 26.6327 40.1082C25.1928 40.0816 23.8171 39.7563 22.5058 39.1323C21.1944 38.5215 20.1144 37.6784 19.2659 36.6029L21.9658 33.1772C23.1743 34.7572 24.6914 35.5738 26.517 35.6269C27.9313 35.68 29.1398 35.295 30.1426 34.4718C31.1454 33.6618 31.8268 32.5133 32.1868 31.0262L32.4953 29.7316C30.9783 31.2984 29.2748 32.2933 27.3848 32.2402C25.3535 32.2136 23.74 31.4369 22.5443 29.9099C21.3487 28.3697 20.693 26.3714 20.5773 23.915C20.5387 23.105 20.5708 22.149 20.6737 21.047ZM26.0156 23.3971C26.0156 24.6453 26.2663 25.6477 26.7677 26.4046C27.282 27.1481 28.0212 27.5398 28.9855 27.5797C30.464 27.6328 32.0101 26.7458 33.1543 25.3914L34.5396 16.2679C33.9867 15.0197 32.9646 14.3691 31.4732 14.316C30.0847 14.2762 28.9084 15.0919 27.9441 16.2869C26.9799 17.4819 26.3756 19.0686 26.1313 21.047C26.0413 22.0163 26.0028 22.7996 26.0156 23.3971Z" fill="black"/>
<path d="M34.5396 16.2679L34.2935 16.2232L34.2924 16.2303L34.5396 16.2679ZM16.4917 16.5418L16.5208 16.3505L16.0265 16.2753L15.9974 16.4666L16.4917 16.5418ZM32.7425 29.7691L34.7867 16.3054L34.2924 16.2303L32.2482 29.694L32.7425 29.7691ZM35.0457 12.0805L34.2936 16.2232L34.7855 16.3125L35.5376 12.1698L35.0457 12.0805ZM17.0258 12.1781L17.5179 12.267L17.5195 12.2573L17.0258 12.1781ZM17.3574 10.1107L17.3574 9.61065L16.9312 9.61065L16.8637 10.0315L17.3574 10.1107ZM22.7341 10.1107L23.2275 10.1917L23.323 9.61066L22.7341 9.61066L22.7341 10.1107ZM19.3207 30.8843L18.8273 30.8032L18.8259 30.8115L18.8249 30.8197L19.3207 30.8843ZM15.7722 37.683L16.0934 38.0662L16.0934 38.0662L15.7722 37.683ZM8.36684 40.1082L8.35764 40.6081L8.35784 40.6081L8.36684 40.1082ZM4.23987 39.1341L4.4544 38.6825L4.45064 38.6807L4.23987 39.1341ZM1 36.6095L0.607588 36.2996L0.362786 36.6097L0.607747 36.9195L1 36.6095ZM3.69989 33.1903L4.09676 32.8862L3.7058 32.376L3.30748 32.8804L3.69989 33.1903ZM8.25113 35.6354L8.26986 35.1357L8.26564 35.1356L8.25113 35.6354ZM11.8767 34.4824L11.5629 34.0932L11.5598 34.0957L11.8767 34.4824ZM13.9209 31.0433L14.4068 31.1612L14.4072 31.1595L13.9209 31.0433ZM14.2295 29.7512L14.7158 29.8673L14.7206 29.847L14.7238 29.8264L14.2295 29.7512ZM16.2446 16.5042L15.7523 16.4153L15.7502 16.429L16.2446 16.5042ZM20.6737 21.047L20.1769 20.9895L20.1759 21.0005L20.6737 21.047ZM23.8171 12.9409L23.4317 12.6223L23.4315 12.6225L23.8171 12.9409ZM30.3162 9.87368L30.3281 9.3738L30.3238 9.37374L30.3162 9.87368ZM35.2917 12.1252L34.8782 12.4064L35.5551 13.4014L35.7826 12.2197L35.2917 12.1252ZM35.6906 10.0538V9.55384H35.2777L35.1996 9.95928L35.6906 10.0538ZM41 10.0538L41.4934 10.1348L41.5887 9.55384H41V10.0538ZM37.5866 30.8668L37.0932 30.7859L37.0918 30.7941L37.0907 30.8024L37.5866 30.8668ZM26.6327 40.1082L26.6235 40.6081L26.6237 40.6081L26.6327 40.1082ZM22.5058 39.1323L22.7206 38.6808L22.7169 38.679L22.5058 39.1323ZM19.2659 36.6029L18.8732 36.2934L18.6291 36.603L18.8734 36.9126L19.2659 36.6029ZM21.9658 33.1772L22.3629 32.8734L21.9717 32.3619L21.5731 32.8677L21.9658 33.1772ZM26.517 35.6269L26.5358 35.1273L26.5316 35.1271L26.517 35.6269ZM30.1426 34.4718L29.8284 34.0828L29.8253 34.0853L30.1426 34.4718ZM32.1868 31.0262L32.6728 31.1438L32.6732 31.1421L32.1868 31.0262ZM32.4953 29.7316L32.9817 29.8475L33.4045 28.0739L32.1361 29.3838L32.4953 29.7316ZM27.3848 32.2402L27.3989 31.7403L27.3914 31.7402L27.3848 32.2402ZM22.5443 29.9099L22.1494 30.2165L22.1507 30.2182L22.5443 29.9099ZM20.5773 23.915L21.0767 23.8915L21.0767 23.8912L20.5773 23.915ZM26.0156 23.3971H26.5157L26.5155 23.3864L26.0156 23.3971ZM26.7677 26.4046L26.3508 26.6808L26.3565 26.689L26.7677 26.4046ZM28.9855 27.5797L28.9649 28.0792L28.9675 28.0793L28.9855 27.5797ZM33.1543 25.3914L33.5363 25.7141L33.6274 25.6062L33.6487 25.4665L33.1543 25.3914ZM34.5396 16.2679L35.0339 16.3429L35.0558 16.1987L34.9967 16.0654L34.5396 16.2679ZM31.4732 14.316L31.491 13.8163L31.4876 13.8162L31.4732 14.316ZM26.1313 21.047L25.6351 20.9857L25.6342 20.9932L25.6335 21.0007L26.1313 21.047ZM17.5195 12.2573L17.8511 10.1898L16.8637 10.0315L16.5321 12.0989L17.5195 12.2573ZM17.3574 10.6107L22.7341 10.6107L22.7341 9.61066L17.3574 9.61065L17.3574 10.6107ZM22.2407 10.0296L18.8273 30.8032L19.8141 30.9654L23.2275 10.1917L22.2407 10.0296ZM18.8249 30.8197C18.4663 33.5728 17.3369 35.7196 15.4511 37.2997L16.0934 38.0662C18.1932 36.3067 19.4294 33.921 19.8165 30.9489L18.8249 30.8197ZM15.4511 37.2997C13.563 38.8819 11.2165 39.6594 8.37584 39.6083L8.35784 40.6081C11.4055 40.663 13.9959 39.8238 16.0934 38.0662L15.4511 37.2997ZM8.37604 39.6083C7.00778 39.5831 5.70207 39.2751 4.45439 38.6825L4.02534 39.5858C5.40041 40.2389 6.84601 40.5803 8.35764 40.6081L8.37604 39.6083ZM4.45064 38.6807C3.20599 38.1021 2.18958 37.3081 1.39225 36.2994L0.607747 36.9195C1.5075 38.0578 2.65099 38.9469 4.02909 39.5875L4.45064 38.6807ZM1.39241 36.9193L4.0923 33.5001L3.30748 32.8804L0.607588 36.2996L1.39241 36.9193ZM3.30302 33.4944C4.59388 35.1789 6.24612 36.0774 8.23662 36.1352L8.26564 35.1356C6.60486 35.0874 5.22294 34.3558 4.09676 32.8862L3.30302 33.4944ZM8.2324 36.1351C9.75646 36.1922 11.0875 35.7755 12.1936 34.8692L11.5598 34.0957C10.6603 34.8327 9.57426 35.1847 8.26986 35.1358L8.2324 36.1351ZM12.1905 34.8717C13.2941 33.982 14.0259 32.7319 14.4068 31.1612L13.435 30.9255C13.0959 32.3234 12.4649 33.366 11.5629 34.0932L12.1905 34.8717ZM14.4072 31.1595L14.7158 29.8673L13.7431 29.6351L13.4346 30.9272L14.4072 31.1595ZM14.7238 29.8264L16.7389 16.5794L15.7502 16.429L13.7351 29.676L14.7238 29.8264ZM16.5337 12.0892L15.7525 16.4154L16.7366 16.5931L17.5178 12.2669L16.5337 12.0892ZM21.1704 21.1045C21.5477 17.8437 22.5679 15.2395 24.2027 13.2592L23.4315 12.6225C21.6465 14.7849 20.571 17.5848 20.177 20.9895L21.1704 21.1045ZM24.2026 13.2594C25.8327 11.2869 27.8566 10.3362 30.3085 10.3736L30.3238 9.37374C27.5559 9.33149 25.2471 10.4256 23.4317 12.6223L24.2026 13.2594ZM30.3042 10.3735C32.4437 10.4246 33.912 10.9859 34.8782 12.4064L35.7051 11.844C34.4857 10.0512 32.637 9.42896 30.3281 9.37382L30.3042 10.3735ZM35.7826 12.2197L36.1815 10.1484L35.1996 9.95928L34.8007 12.0306L35.7826 12.2197ZM35.6906 10.5538H41V9.55384H35.6906V10.5538ZM40.5066 9.97291L37.0932 30.7859L38.08 30.9478L41.4934 10.1348L40.5066 9.97291ZM37.0907 30.8024C36.7321 33.5611 35.6025 35.7122 33.7167 37.2954L34.3596 38.0613C36.4594 36.2985 37.6953 33.9086 38.0824 30.9313L37.0907 30.8024ZM33.7167 37.2954C31.8285 38.8806 29.4822 39.6595 26.6418 39.6083L26.6237 40.6081C29.6716 40.6631 32.2622 39.8222 34.3596 38.0613L33.7167 37.2954ZM26.642 39.6083C25.2738 39.5831 23.9682 39.2745 22.7206 38.6808L22.2909 39.5838C23.666 40.2382 25.1117 40.5802 26.6235 40.6081L26.642 39.6083ZM22.7169 38.679C21.4723 38.0994 20.4558 37.3038 19.6584 36.2932L18.8734 36.9126C19.773 38.0529 20.9165 38.9436 22.2947 39.5855L22.7169 38.679ZM19.6586 36.9123L22.3585 33.4867L21.5731 32.8677L18.8732 36.2934L19.6586 36.9123ZM21.5686 33.4809C22.8593 35.1685 24.5116 36.0688 26.5025 36.1267L26.5316 35.1271C24.8712 35.0788 23.4893 34.346 22.3629 32.8734L21.5686 33.4809ZM26.4983 36.1266C28.0226 36.1838 29.3537 35.7662 30.4598 34.8582L29.8253 34.0853C28.9258 34.8237 27.8399 35.1763 26.5358 35.1273L26.4983 36.1266ZM30.4568 34.8607C31.5603 33.9694 32.2919 32.7171 32.6728 31.1438L31.7008 30.9085C31.3617 32.3094 30.7305 33.3542 29.8284 34.0828L30.4568 34.8607ZM32.6732 31.1421L32.9817 29.8475L32.009 29.6157L31.7004 30.9102L32.6732 31.1421ZM32.1361 29.3838C30.6675 30.9005 29.0909 31.7879 27.3989 31.7404L27.3708 32.74C29.4587 32.7987 31.289 31.6962 32.8546 30.0794L32.1361 29.3838ZM27.3914 31.7402C25.5031 31.7155 24.0353 31.003 22.938 29.6017L22.1507 30.2182C23.4447 31.8708 25.2039 32.7117 27.3783 32.7401L27.3914 31.7402ZM22.9393 29.6033C21.8215 28.1635 21.1889 26.272 21.0767 23.8915L20.0778 23.9385C20.1971 26.4708 20.8758 28.5759 22.1494 30.2165L22.9393 29.6033ZM21.0767 23.8912C21.0396 23.1114 21.0701 22.1799 21.1715 21.0934L20.1759 21.0005C20.0716 22.1181 20.0378 23.0987 20.0778 23.9388L21.0767 23.8912ZM25.5156 23.3971C25.5156 24.7078 25.7784 25.8166 26.3509 26.6807L27.1846 26.1284C26.7542 25.4789 26.5156 24.5827 26.5156 23.3971H25.5156ZM26.3565 26.689C26.9668 27.5714 27.8562 28.0334 28.9649 28.0792L29.0061 27.0801C28.1863 27.0462 27.5972 26.7249 27.179 26.1202L26.3565 26.689ZM28.9675 28.0793C30.6519 28.1398 32.3327 27.1387 33.5363 25.7141L32.7724 25.0687C31.6875 26.3528 30.2761 27.1257 29.0034 27.08L28.9675 28.0793ZM33.6487 25.4665L35.0339 16.3429L34.0452 16.1928L32.66 25.3164L33.6487 25.4665ZM34.9967 16.0654C34.6856 15.363 34.2313 14.8068 33.6268 14.422C33.0251 14.039 32.3052 13.8453 31.491 13.8163L31.4555 14.8157C32.1326 14.8398 32.6695 14.9981 33.0899 15.2656C33.5075 15.5315 33.8407 15.9246 34.0824 16.4704L34.9967 16.0654ZM31.4876 13.8162C29.8744 13.7699 28.5642 14.7221 27.555 15.9729L28.3332 16.6009C29.2525 15.4616 30.2951 14.7824 31.4589 14.8158L31.4876 13.8162ZM27.555 15.9729C26.5171 17.2592 25.8875 18.9418 25.6351 20.9857L26.6276 21.1082C26.8637 19.1953 27.4426 17.7046 28.3332 16.6009L27.555 15.9729ZM25.6335 21.0007C25.5427 21.9788 25.5023 22.7834 25.5157 23.4079L26.5155 23.3864C26.5032 22.8159 26.54 22.0537 26.6292 21.0932L25.6335 21.0007Z" fill="black" mask="url(#path-1-outside-1)"/>
<ellipse cx="20.422" cy="3.68209" rx="3.46821" ry="3.57143" fill="#FD000A"/>
</svg>
